src/assets/img/providers/bfgames-g.svg

<svg width="52" height="40" viewBox="0 0 52 40" fill="none" xmlns="http://www.w3.org/2000/svg">
<g clip-path="url(#clip0_4132_7961)">
<path fill-rule="evenodd" clip-rule="evenodd" d="M33.9933 16.3271L50.4538 16.3305C50.4681 16.331 50.4821 16.3353 50.4942 16.343C50.5063 16.3507 50.516 16.3614 50.5223 16.374C50.5286 16.3865 50.5312 16.4004 50.5298 16.4141C50.5283 16.4278 50.523 16.4408 50.5143 16.4515L46.5614 21.5742C46.5247 21.6212 46.4777 21.6593 46.4242 21.6855C46.3706 21.7117 46.3118 21.7253 46.2521 21.7255L34.0672 21.7221C33.9821 21.7221 33.9395 21.7647 33.9395 21.8498V29.6045C33.9395 29.7568 33.8633 29.833 33.7109 29.833H19.8622C19.8469 29.8333 19.8318 29.8291 19.8189 29.8208C19.806 29.8126 19.7958 29.8007 19.7897 29.7866C19.7836 29.7726 19.7818 29.757 19.7845 29.7419C19.7872 29.7269 19.7944 29.7129 19.8051 29.7019C24.6297 24.6129 29.1854 19.2594 33.4723 13.6414C35.4443 11.0554 37.2079 8.52882 38.763 6.06159C39.4532 4.96804 40.0011 3.81958 40.4067 2.61622C40.4339 2.53444 40.4377 2.44666 40.4175 2.36288C40.3973 2.27909 40.3539 2.20266 40.2924 2.14227C40.0908 1.94955 39.8745 1.90697 39.6437 2.01454C38.7698 2.42462 37.9619 2.94451 37.2202 3.5742C37.1911 3.59885 37.1574 3.61342 37.1193 3.6179C37.1014 3.62014 37.0936 3.61117 37.0958 3.59101C37.0958 3.5798 37.1003 3.56972 37.1093 3.56075C38.3093 2.42798 41.2538 -0.0661359 42.5446 0.0279817C42.6325 0.0341503 42.7183 0.0581761 42.7967 0.0986068C42.8751 0.139038 42.9445 0.195034 43.0007 0.263212C43.057 0.331389 43.0988 0.410333 43.1239 0.495272C43.1489 0.580211 43.1565 0.669381 43.1462 0.757393C42.8874 2.9826 41.2572 5.66832 40.0908 7.49689C40.078 7.51621 40.0706 7.53866 40.0696 7.56183C40.0686 7.58499 40.0739 7.608 40.0849 7.62838C40.096 7.64876 40.1124 7.66575 40.1324 7.67752C40.1523 7.6893 40.1751 7.69541 40.1983 7.69521H51.721C51.7357 7.69472 51.7501 7.69841 51.7628 7.70584C51.7754 7.71326 51.7857 7.72413 51.7924 7.73716C51.799 7.75019 51.8019 7.76486 51.8006 7.77945C51.7993 7.79404 51.7938 7.80796 51.7849 7.81958L47.553 13.3053C47.4812 13.3972 47.386 13.4431 47.2672 13.4431H36.1681C36.1338 13.443 36.0998 13.4512 36.0688 13.467C36.0379 13.4827 36.0109 13.5056 35.9899 13.5339C35.0801 14.7686 34.4011 15.6728 33.953 16.2465C33.9473 16.254 33.9439 16.2629 33.9431 16.2722C33.9422 16.2815 33.944 16.2909 33.9482 16.2993C33.9524 16.3076 33.9588 16.3147 33.9668 16.3196C33.9747 16.3245 33.9839 16.3271 33.9933 16.3271ZM15.3378 29.8329H0.285743C0.173698 29.8329 0.117676 29.7769 0.117676 29.6648V16.5691C0.117676 16.4368 0.182662 16.3719 0.312634 16.3741C6.64092 16.3943 13.172 16.3887 19.9059 16.3573C20.9771 16.3528 21.5283 15.8878 21.5597 14.9623V14.9052C21.5507 13.9775 20.9748 13.5102 19.832 13.5035C13.1675 13.4542 6.64653 13.4441 0.268937 13.4733C0.255203 13.4734 0.241696 13.4697 0.22993 13.4627C0.218165 13.4556 0.208606 13.4453 0.202324 13.4331C0.196043 13.4209 0.193286 13.4072 0.194365 13.3935C0.195444 13.3798 0.200315 13.3667 0.208432 13.3556L4.45045 7.87325C4.5244 7.77914 4.62188 7.73208 4.74289 7.73208C9.20227 7.7276 13.7154 7.72648 18.2824 7.72872C19.8454 7.73208 21.1429 7.86989 22.8874 8.08502C23.1675 8.11863 23.7244 8.31247 24.558 8.66653C26.958 9.6839 28.1289 11.4564 28.0706 13.9842C28.0236 16.0077 27.107 17.4632 25.321 18.3506C25.1575 18.4312 25.1608 18.5018 25.3311 18.5623C26.0348 18.8111 26.6757 19.2335 27.2538 19.8296C27.2796 19.8565 27.2945 19.8919 27.2957 19.9291C27.297 19.9663 27.2844 20.0027 27.2605 20.0312C23.3054 24.764 18.967 29.2973 14.2454 33.6312C12.5289 35.2066 10.7238 36.7125 8.83028 38.1489C7.90479 38.8503 7.01852 39.3455 6.17146 39.6346C6.03218 39.6828 5.88071 39.6832 5.74079 39.6358C5.60088 39.5883 5.48043 39.4957 5.39835 39.3724C4.51431 38.0312 7.73112 33.6951 8.60843 32.6396C8.63084 32.615 8.65437 32.6127 8.67902 32.6329H8.68238C8.71824 32.662 8.7216 32.6945 8.69247 32.7304C7.91263 33.7209 7.29078 34.8043 6.82692 35.9808C6.79268 36.0673 6.78253 36.1614 6.79754 36.2532C6.81256 36.345 6.85218 36.431 6.91219 36.502C6.9722 36.5731 7.05036 36.6265 7.13833 36.6567C7.22631 36.6868 7.32082 36.6925 7.41179 36.6732C7.66277 36.6217 7.89807 36.5242 8.11768 36.3808C10.7014 34.7046 13.1362 32.5847 15.4219 30.0212C15.5362 29.8957 15.5082 29.8329 15.3378 29.8329ZM6.99163 21.1976V24.0279C6.99163 24.0555 7.0026 24.082 7.02215 24.1016C7.04169 24.1211 7.06819 24.1321 7.09583 24.1321H19.8891C20.1288 24.1321 20.3661 24.0953 20.5876 24.0238C20.809 23.9524 21.0102 23.8477 21.1797 23.7156C21.3492 23.5836 21.4837 23.4269 21.5754 23.2543C21.6671 23.0818 21.7143 22.8969 21.7143 22.7102V22.5153C21.7143 22.3286 21.6671 22.1437 21.5754 21.9712C21.4837 21.7986 21.3492 21.6419 21.1797 21.5099C21.0102 21.3778 20.809 21.2731 20.5876 21.2017C20.3661 21.1302 20.1288 21.0934 19.8891 21.0934H7.09583C7.06819 21.0934 7.04169 21.1044 7.02215 21.1239C7.0026 21.1435 6.99163 21.17 6.99163 21.1976ZM21.5563 36.2163L21.9059 36.223C22.0583 36.2253 22.1401 36.3014 22.1513 36.4516C22.1759 36.7944 22.1558 37.1182 22.0908 37.423C22.0584 37.5802 21.9691 37.7199 21.8401 37.8155C21.7111 37.911 21.5514 37.9555 21.3916 37.9407C20.9546 37.9003 20.7193 37.6796 20.6857 37.2785C20.6118 36.3911 20.6084 35.3715 20.6757 34.2197C20.6843 34.0745 20.7411 33.9363 20.8372 33.8268C20.9334 33.7173 21.0634 33.6426 21.2067 33.6146C21.9294 33.4734 22.2656 34.0751 22.1647 34.707C22.1603 34.733 22.1617 34.7595 22.1688 34.7849C22.1759 34.8102 22.1885 34.8338 22.2058 34.8539C22.2231 34.8741 22.2446 34.8903 22.2688 34.9015C22.2931 34.9127 22.3195 34.9186 22.3462 34.9188H22.4303C22.4904 34.9189 22.5483 34.896 22.5921 34.8547C22.6358 34.8135 22.6621 34.757 22.6656 34.697C22.7933 32.781 20.3059 32.6499 20.1815 34.2902C20.1188 35.088 20.1076 35.9944 20.1479 37.0096C20.1883 38.0482 20.9311 38.707 21.9698 38.1793C22.0616 38.1323 22.149 38.139 22.232 38.1995L22.353 38.2869C22.5412 38.4236 22.6353 38.3754 22.6353 38.1423V36.0079C22.6353 35.8712 22.5658 35.804 22.4269 35.8062L21.4958 35.8297C21.4151 35.832 21.3647 35.8712 21.3446 35.9474C21.3311 35.9989 21.3345 36.046 21.3546 36.0886C21.395 36.1737 21.4622 36.2163 21.5563 36.2163ZM27.0622 37.1743L26.8673 38.1558C26.8584 38.2057 26.8313 38.2507 26.791 38.2822C26.7508 38.3138 26.7002 38.3298 26.6488 38.3272L26.5278 38.3205C26.409 38.3138 26.3619 38.251 26.3866 38.1323L27.3782 33.4096C27.3875 33.3644 27.4082 33.3224 27.4382 33.2876C27.4682 33.2529 27.5066 33.2266 27.5496 33.2113C27.7804 33.1261 27.9205 33.2012 27.9698 33.4365C28.3104 35.0118 28.6398 36.5737 28.958 38.1222C28.9872 38.2634 28.9289 38.3306 28.7832 38.3239L28.6118 38.3171C28.5356 38.3126 28.4908 38.2723 28.4773 38.1961L28.2958 37.1743C28.2712 37.0353 28.1894 36.9659 28.0505 36.9659L27.311 36.9692C27.172 36.9692 27.0891 37.0376 27.0622 37.1743ZM27.8051 34.6869C27.7266 34.3037 27.6482 34.3037 27.5698 34.6869L27.2336 36.3037C27.2 36.4628 27.265 36.5435 27.4286 36.5457L27.9194 36.5491C28.0942 36.5513 28.1647 36.4662 28.1311 36.2936L27.8051 34.6869ZM34.5916 37.8868C34.8224 37.1652 35.0006 36.2924 35.1261 35.2683C35.1373 35.1854 35.1843 35.1462 35.2672 35.1507L35.3546 35.1574C35.3703 35.1574 35.3782 35.1641 35.3782 35.1776C35.4006 36.1613 35.4353 37.1428 35.4824 38.1221C35.4891 38.2454 35.5541 38.3047 35.6773 38.3003L35.7849 38.2969C35.8835 38.2924 35.9305 38.242 35.9261 38.1456L35.7849 33.3792C35.7826 33.2963 35.7434 33.2392 35.6672 33.2078C35.4431 33.1204 35.3087 33.1742 35.2639 33.3692C34.9815 34.5882 34.6969 35.7277 34.4101 36.7877C34.2756 37.2896 34.1692 37.2829 34.0908 36.7675C33.9272 35.7008 33.665 34.5445 33.3042 33.2986C33.2616 33.1529 33.1574 33.1092 32.9916 33.1675C32.9482 33.1821 32.9104 33.2099 32.8833 33.2472C32.8562 33.2845 32.8412 33.3295 32.8403 33.3759L32.7059 38.1456C32.7037 38.242 32.7507 38.2913 32.8471 38.2935L32.995 38.3003C33.0801 38.3025 33.1272 38.261 33.1361 38.1759C33.2191 37.2033 33.2336 36.2252 33.1798 35.2414C33.1776 35.1854 33.2045 35.154 33.2605 35.1473L33.3513 35.1372C33.3647 35.135 33.3726 35.1406 33.3748 35.154C33.5854 36.1759 33.8028 37.0835 34.0269 37.8767C34.2062 38.5109 34.3944 38.5143 34.5916 37.8868ZM40.4605 35.4666L41.3782 35.4532C41.3908 35.4532 41.4034 35.4557 41.415 35.4607C41.4266 35.4656 41.4372 35.4728 41.446 35.4819C41.4547 35.491 41.4616 35.5018 41.4661 35.5136C41.4707 35.5254 41.4728 35.538 41.4723 35.5507L41.4589 35.7759C41.4571 35.8003 41.446 35.823 41.4278 35.8393C41.4096 35.8556 41.3858 35.8642 41.3614 35.8633L40.4605 35.8465C40.4479 35.846 40.4353 35.8481 40.4235 35.8527C40.4117 35.8572 40.4009 35.864 40.3918 35.8728C40.3827 35.8816 40.3755 35.8921 40.3705 35.9038C40.3656 35.9154 40.3631 35.9279 40.3631 35.9406L40.3597 37.7893C40.3597 37.8143 40.3696 37.8382 40.3873 37.8559C40.4049 37.8735 40.4289 37.8835 40.4538 37.8835L41.6706 37.8935C41.6833 37.894 41.6957 37.8969 41.7072 37.9023C41.7187 37.9076 41.729 37.9152 41.7375 37.9246C41.7459 37.9341 41.7524 37.9451 41.7565 37.9571C41.7606 37.9691 41.7623 37.9817 41.7614 37.9944L41.7412 38.2229C41.7387 38.2461 41.7277 38.2676 41.7103 38.2831C41.6929 38.2986 41.6704 38.3071 41.6471 38.307L39.9631 38.3103C39.9381 38.3103 39.9142 38.3004 39.8965 38.2828C39.8789 38.2651 39.8689 38.2412 39.8689 38.2162L39.8723 33.2919C39.8723 33.2669 39.8822 33.243 39.8999 33.2253C39.9175 33.2077 39.9415 33.1977 39.9664 33.1977L41.6673 33.1944C41.6802 33.1943 41.693 33.197 41.7049 33.2021C41.7168 33.2073 41.7275 33.2148 41.7363 33.2243C41.7451 33.2337 41.7519 33.2449 41.7562 33.2571C41.7606 33.2693 41.7623 33.2823 41.7614 33.2952L41.7446 33.5271C41.7429 33.5509 41.7322 33.5732 41.7147 33.5894C41.6973 33.6056 41.6743 33.6146 41.6505 33.6145L40.4572 33.6213C40.4322 33.6213 40.4083 33.6312 40.3906 33.6488C40.373 33.6665 40.3631 33.6904 40.3631 33.7154V35.3725C40.3631 35.3852 40.3656 35.3977 40.3705 35.4093C40.3755 35.421 40.3827 35.4315 40.3918 35.4403C40.4009 35.4491 40.4117 35.4559 40.4235 35.4605C40.4353 35.465 40.4479 35.4671 40.4605 35.4666ZM46.0142 33.8189C46.1016 33.738 46.2094 33.6824 46.3261 33.6582C47.0387 33.5136 47.1832 34.0414 47.3244 34.5624C47.3291 34.5805 47.3379 34.5972 47.3502 34.6113C47.3625 34.6254 47.3778 34.6364 47.3951 34.6436C47.4123 34.6508 47.431 34.6538 47.4497 34.6526C47.4683 34.6513 47.4864 34.6458 47.5025 34.6363L47.5967 34.5825C47.7289 34.5064 47.7759 34.3943 47.7378 34.2464C47.1664 32.0481 44.1311 33.6515 45.8488 35.2952C46.3306 35.759 46.7787 36.2341 47.1933 36.7204C47.2622 36.8017 47.3111 36.8984 47.3362 37.0028C47.3613 37.1072 47.3618 37.2165 47.3378 37.322C47.2415 37.7433 47.0051 37.945 46.6286 37.9271C46.1334 37.9002 45.8521 37.582 45.7849 36.9725C45.7826 36.9523 45.7755 36.933 45.7642 36.9161C45.7529 36.8992 45.7378 36.8853 45.72 36.8754C45.7023 36.8656 45.6825 36.8601 45.6622 36.8594C45.6419 36.8588 45.6217 36.8629 45.6034 36.8716L45.4925 36.922C45.367 36.9803 45.3199 37.0767 45.3513 37.2111C45.879 39.5036 48.9513 38.0111 47.4286 36.2599C46.9983 35.7669 46.5233 35.2705 46.0034 34.7708C45.9178 34.6879 45.8564 34.5833 45.8259 34.4682C45.7953 34.353 45.7967 34.2318 45.8299 34.1174C45.863 34.003 45.9268 33.8998 46.0142 33.8189Z" fill="#00AB55"/>
</g>
<defs>
<clipPath id="clip0_4132_7961">
<rect width="51.7647" height="40" fill="white" transform="translate(0.117676 0.000976562)"/>
</clipPath>
</defs>
</svg>

<svg xmlns="http://www.w3.org/2000/svg" width="52" height="40" fill="none"><g clip-path="url(#a)"><path fill="#00AB55" fill-rule="evenodd" d="m33.993 16.327 16.46.003a.08.08 0 0 1 .07.044.072.072 0 0 1-.008.078l-3.954 5.122a.394.394 0 0 1-.309.151l-12.185-.003c-.085 0-.127.043-.127.128v7.755c0 .152-.077.228-.23.228H19.863a.077.077 0 0 1-.057-.131 197.186 197.186 0 0 0 13.667-16.06 103.968 103.968 0 0 0 5.291-7.58 16.027 16.027 0 0 0 1.644-3.446.46.46 0 0 0-.115-.474c-.201-.192-.418-.235-.648-.127-.874.41-1.682.93-2.424 1.56a.187.187 0 0 1-.1.043c-.019.002-.026-.007-.024-.027 0-.011.004-.021.013-.03 1.2-1.133 4.145-3.627 5.436-3.533a.65.65 0 0 1 .579.467.658.658 0 0 1 .022.262c-.259 2.226-1.889 4.911-3.055 6.74a.128.128 0 0 0 .107.198h11.523a.077.077 0 0 1 .064.125l-4.232 5.485a.345.345 0 0 1-.286.138H36.168a.217.217 0 0 0-.178.09 134.057 134.057 0 0 1-2.037 2.714.05.05 0 0 0 .014.073.05.05 0 0 0 .026.007ZM15.338 29.833H.286c-.112 0-.168-.056-.168-.168V16.569c0-.132.065-.197.195-.195 6.328.02 12.859.015 19.593-.017 1.071-.004 1.622-.47 1.654-1.395v-.057c-.01-.928-.585-1.395-1.728-1.401-6.665-.05-13.185-.06-19.563-.03a.074.074 0 0 1-.06-.118L4.45 7.873a.354.354 0 0 1 .293-.14c4.46-.005 8.972-.007 13.54-.004 1.562.003 2.86.14 4.604.356.28.034.837.227 1.671.582 2.4 1.017 3.57 2.79 3.513 5.317-.047 2.024-.964 3.48-2.75 4.367-.164.08-.16.15.01.211.704.25 1.345.671 1.923 1.268a.15.15 0 0 1 .006.201 142.526 142.526 0 0 1-13.015 13.6A75.347 75.347 0 0 1 8.83 38.15c-.925.701-1.811 1.197-2.659 1.486a.665.665 0 0 1-.773-.263c-.884-1.34 2.333-5.677 3.21-6.732.023-.025.046-.027.071-.007h.003c.036.029.04.061.01.097-.78.99-1.401 2.074-1.865 3.25a.514.514 0 0 0 .585.693c.25-.051.486-.149.706-.292 2.583-1.676 5.018-3.796 7.304-6.36.114-.125.086-.188-.084-.188Zm-8.346-8.635v2.83a.104.104 0 0 0 .104.104h12.793c.24 0 .477-.037.699-.108.221-.072.422-.176.592-.308.17-.132.304-.29.395-.462.092-.172.14-.357.14-.544v-.195c0-.186-.048-.371-.14-.544a1.456 1.456 0 0 0-.395-.461 1.923 1.923 0 0 0-.592-.308 2.281 2.281 0 0 0-.699-.109H7.096a.104.104 0 0 0-.104.105Zm14.564 15.018.35.007c.152.002.234.078.245.229.025.342.005.666-.06.971a.653.653 0 0 1-.7.518c-.436-.04-.672-.261-.705-.663-.074-.887-.078-1.907-.01-3.058a.654.654 0 0 1 .53-.605c.723-.142 1.06.46.959 1.092a.178.178 0 0 0 .04.147.185.185 0 0 0 .141.065h.084a.235.235 0 0 0 .236-.222c.127-1.916-2.36-2.047-2.485-.407a23.267 23.267 0 0 0-.033 2.72c.04 1.038.783 1.697 1.822 1.17a.234.234 0 0 1 .262.02l.121.087c.188.137.282.088.282-.145v-2.134c0-.137-.07-.204-.208-.202l-.931.024c-.08.002-.131.041-.151.117a.202.202 0 0 0 .01.142c.04.085.107.127.201.127Zm5.506.958-.195.982a.206.206 0 0 1-.076.126.213.213 0 0 1-.142.045l-.121-.006c-.119-.007-.166-.07-.141-.189l.991-4.722a.27.27 0 0 1 .172-.199c.23-.085.37-.01.42.226.34 1.575.67 3.137.988 4.685.03.141-.03.209-.175.202l-.171-.007c-.076-.004-.121-.045-.135-.12l-.181-1.023c-.025-.139-.107-.208-.245-.208l-.74.003c-.139 0-.222.069-.249.205Zm.743-2.487c-.078-.383-.157-.383-.235 0l-.336 1.617c-.034.159.031.24.195.242l.49.003c.175.002.246-.083.212-.255l-.326-1.607Zm6.787 3.2c.23-.722.409-1.595.534-2.619.011-.083.058-.122.141-.117l.088.006c.015 0 .023.007.023.02.023.984.057 1.966.104 2.945.007.123.072.183.195.178l.108-.003c.099-.005.146-.055.141-.151l-.141-4.767a.177.177 0 0 0-.118-.171c-.224-.088-.358-.034-.403.161a96.603 96.603 0 0 1-.854 3.419c-.134.502-.24.495-.32-.02a27.59 27.59 0 0 0-.786-3.47c-.042-.145-.147-.189-.312-.13a.22.22 0 0 0-.152.208l-.134 4.77c-.002.096.045.145.141.148l.148.006c.085.003.132-.039.141-.124.083-.973.098-1.95.044-2.935-.002-.056.025-.087.08-.094l.091-.01c.014-.002.022.004.024.017.21 1.022.428 1.93.652 2.723.18.634.367.637.565.01Zm5.869-2.42.917-.014a.093.093 0 0 1 .068.029.095.095 0 0 1 .026.069l-.013.225a.094.094 0 0 1-.098.087l-.9-.017a.092.092 0 0 0-.07.027.095.095 0 0 0-.028.068l-.003 1.848a.094.094 0 0 0 .094.094l1.217.01a.095.095 0 0 1 .09.101l-.02.229a.094.094 0 0 1-.094.084l-1.684.003a.094.094 0 0 1-.094-.094l.003-4.924a.094.094 0 0 1 .094-.094l1.701-.004a.094.094 0 0 1 .094.101l-.016.232a.094.094 0 0 1-.094.087l-1.194.007a.094.094 0 0 0-.094.094v1.657a.094.094 0 0 0 .06.089.094.094 0 0 0 .038.006Zm5.553-1.648a.655.655 0 0 1 .312-.16c.713-.145.857.382.998.903a.12.12 0 0 0 .126.09.12.12 0 0 0 .052-.016l.095-.053c.132-.077.179-.189.14-.337-.57-2.198-3.606-.595-1.888 1.05.482.463.93.938 1.344 1.424a.684.684 0 0 1 .145.602c-.096.421-.333.623-.71.605-.495-.027-.776-.345-.843-.955a.127.127 0 0 0-.182-.1l-.11.05c-.126.058-.173.155-.142.29.528 2.292 3.6.8 2.078-.952-.43-.493-.906-.99-1.426-1.49a.655.655 0 0 1 .011-.951Z" clip-rule="evenodd"/></g><defs><clipPath id="a"><path fill="#fff" d="M.118.001h51.765v40H.118z"/></clipPath></defs></svg>
